X: 23040
T: Last Pint, The
R: hornpipe
M: 4/4
K: Gmajor
|:G3E DEGA|BGAB AGED|G3E DEGA|BGAB A3z|
G3E DEGA|BGAB AGED|GABG BcAG|FDEF AGGF:|
|:GBdG BdGB|cBAG BGGF|GBdG BdGB|cBAG FDEF|
GBdG BdGB|cBAG BGGF|G3E DEGA|BGAB A4:|
"Variation"
BcBG cdcG|BcBG de d2|BcBG cdcG|BcBG AG E2|
BcBG cdcG|BcBG de d>g|e2 g2 d2 g2|e2 g2 dcBA||

